assets/images/Location/car.svg

<svg width="40" height="40" viewBox="0 0 40 40" fill="none" xmlns="http://www.w3.org/2000/svg">
<path d="M27.861 6.66504C28.8256 6.66419 29.7661 6.96737 30.5487 7.53155C31.2668 8.04923 31.8184 8.7625 32.1394 9.58387L32.1817 9.69654L34.666 17.1468C35.2813 17.3442 35.8075 17.7435 36.1658 18.2662C36.4479 18.6776 36.6257 19.1659 36.6605 19.6927L36.6655 19.7985L36.6668 28.5022C36.665 29.0147 36.5256 29.5173 36.2633 29.9575C36.0183 30.3683 35.6746 30.7108 35.264 30.9541L35.175 31.0047L34.7826 31.2186L34.8933 31.6516C34.9139 31.7322 34.9266 31.7761 34.9344 31.8083L34.9378 31.8235L34.9426 35.4007C34.9426 35.7055 34.8215 35.9979 34.606 36.2134C34.4213 36.3981 34.1802 36.5135 33.9232 36.5427L33.8586 36.5482L32.0691 36.5501C31.7642 36.5501 31.4719 36.429 31.2563 36.2134C31.0716 36.0288 30.9563 35.7877 30.927 35.5308L30.9215 35.4662L30.9193 31.3777H9.08056V35.4007C9.08056 35.7055 8.95946 35.9979 8.74389 36.2134C8.55919 36.3981 8.31812 36.5135 8.06113 36.5427L7.99658 36.5482L6.207 36.5501C5.90216 36.5501 5.6098 36.429 5.39425 36.2134C5.20958 36.0288 5.09423 35.7877 5.06496 35.5308L5.05944 35.4662L5.05757 31.8455L5.18428 31.3784L4.84578 31.1478C4.01893 30.5843 3.40578 29.7155 3.33941 28.6893L3.3348 28.5927L3.33344 19.8843C3.33428 19.3179 3.50217 18.7643 3.81612 18.2929C4.1374 17.8105 4.59705 17.4361 5.13517 17.2189L5.23093 17.1822L7.77894 9.8109C8.08271 8.89404 8.66801 8.09637 9.45155 7.53154C10.1696 7.01387 11.0206 6.71593 11.9013 6.671L12.0216 6.66645L27.861 6.66504ZM34.3677 19.3087H5.63229V29.0788H34.3716L34.3677 19.3087ZM10.5173 22.1823C11.0728 22.1823 11.5757 22.4074 11.9397 22.7714C12.3037 23.1354 12.5288 23.6383 12.5288 24.1938C12.5288 24.7493 12.3037 25.2521 11.9397 25.6161C11.5757 25.9801 11.0728 26.2053 10.5173 26.2053C9.96187 26.2053 9.45899 25.9801 9.09499 25.6161C8.73098 25.2521 8.50585 24.7493 8.50585 24.1938C8.50585 23.6383 8.73098 23.1354 9.09499 22.7714C9.45899 22.4074 9.96187 22.1823 10.5173 22.1823ZM29.4829 22.1823C30.0383 22.1823 30.5412 22.4074 30.9052 22.7714C31.2692 23.1354 31.4944 23.6383 31.4944 24.1938C31.4944 24.7493 31.2692 25.2521 30.9052 25.6161C30.5412 25.9801 30.0383 26.2053 29.4829 26.2053C28.9274 26.2053 28.4245 25.9801 28.0605 25.6161C27.6965 25.2521 27.4714 24.7493 27.4714 24.1938C27.4714 23.6383 27.6965 23.1354 28.0605 22.7714C28.4245 22.4074 28.9274 22.1823 29.4829 22.1823ZM27.8587 8.96389H12.1398L12.0434 8.96589C11.5949 8.9846 11.1607 9.13441 10.7952 9.39777C10.4375 9.65566 10.1574 10.0077 9.96207 10.525L7.80108 17.0099H32.1993L30.0401 10.5361L30.0092 10.4488C29.8466 10.0173 29.5627 9.6558 29.2045 9.39761C28.822 9.12189 28.3545 8.96389 27.8587 8.96389Z" fill="#010107"/>
</svg>

<svg xmlns="http://www.w3.org/2000/svg" width="40" height="40" fill="none" viewBox="0 0 40 40"><path fill="#010107" d="M27.861 6.665a4.59 4.59 0 0 1 4.278 2.919l.043.113 2.484 7.45a2.895 2.895 0 0 1 1.5 1.12c.282.41.46.899.495 1.426l.005.105v8.704a2.863 2.863 0 0 1-1.402 2.452l-.089.05-.392.215.11.433c.02.08.034.124.041.156l.004.015.005 3.578a1.15 1.15 0 0 1-1.02 1.142l-.064.005-1.79.002a1.15 1.15 0 0 1-1.142-1.02l-.005-.064-.003-4.088H9.081V35.4a1.15 1.15 0 0 1-1.02 1.142l-.064.005-1.79.002a1.15 1.15 0 0 1-1.142-1.02l-.006-.064-.001-3.62.126-.468-.338-.23c-.827-.564-1.44-1.433-1.507-2.459l-.004-.096-.002-8.709a2.879 2.879 0 0 1 1.802-2.665l.096-.037L7.779 9.81A4.589 4.589 0 0 1 11.9 6.67l.12-.005 15.84-.001zm6.507 12.644H5.632v9.77h28.74l-.004-9.77zm-23.85 2.873c.555 0 1.058.225 1.422.59.364.363.589.866.589 1.422 0 .555-.225 1.058-.59 1.422-.363.364-.866.59-1.422.59a2.005 2.005 0 0 1-1.422-.59 2.005 2.005 0 0 1-.59-1.422c0-.556.226-1.059.59-1.423a2.005 2.005 0 0 1 1.422-.589zm18.965 0c.555 0 1.058.225 1.422.59a2.006 2.006 0 0 1 0 2.844c-.364.364-.867.59-1.422.59a2.005 2.005 0 0 1-1.422-.59 2.005 2.005 0 0 1-.59-1.422c0-.556.226-1.059.59-1.423a2.002 2.002 0 0 1 1.422-.589zM27.859 8.964h-15.72l-.096.002a2.3 2.3 0 0 0-1.248.432c-.357.258-.638.61-.833 1.127l-2.16 6.485h24.397l-2.159-6.474-.03-.087a2.29 2.29 0 0 0-2.151-1.485z"/></svg>
